X:27
T:Dale Russ'
C:Dale Russ
D:"Chasing the bear" by Jon Hicks
Z:Transcribed by Lionel Gueganton
L:1/8
M:4/4
K:E
|: F=F ^FA Bc c/c/c | ec Bc ea ge     | [f2f2] fg fe cA | B/B/B cB A/G/F GA   |
   F=F ^FA Bc c/c/c | ca ge [f2f2] fg | af fe fe cA     |1 B/B/B cB AF FF    :|2 B/B/B cB AF F/F/F
|: bf fb af e=d     | Bc ec f/f/f fa  | bf fb a/a/a af  | cA BG Ac e2         |
   bf fb af e=d     | Bc ec f/f/f fg  | af fe fe cA     |1 B/B/B cB AF F/F/F :|2 B/B/B cB A/G/F GA

